packages/icons/src/canvas-position.svg

<svg viewBox="0 0 12 12" xmlns="http://www.w3.org/2000/svg"><path d="m8 0h4v3.333h-1.333v-2h-2.667zm-4 0v1.333h-2.667v2h-1.333v-3.333zm4 12v-1.333h2.667v-2h1.333v3.333zm-4 0h-4v-3.333h1.333v2h2.667z"/></svg>

<svg viewBox="0 0 12 12" xmlns="http://www.w3.org/2000/svg"><path d="M8 0h4v3.333h-1.333v-2H8V0zM4 0v1.333H1.333v2H0V0h4zm4 12v-1.333h2.667v-2H12V12H8zm-4 0H0V8.667h1.333v2H4V12z" fill="#000" fill-rule="nonzero"/></svg>
